svg/contact/phone_call_fill.svg

<?xml version="1.0" encoding="UTF-8"?>
<svg width="24px" height="24px" viewBox="0 0 24 24" version="1.1" xmlns="http://www.w3.org/2000/svg" xmlns:xlink="http://www.w3.org/1999/xlink">
    <title>phone_call_fill</title>
    <g id="页面-1" stroke="none" stroke-width="1" fill="none" fill-rule="evenodd">
        <g id="Contact" transform="translate(-576.000000, -48.000000)" fill-rule="nonzero">
            <g id="phone_call_fill" transform="translate(576.000000, 48.000000)">
                 <path d="M24,0 L24,24 L0,24 L0,0 L24,0 Z M12.5934901,23.257841 L12.5819402,23.2595131 L12.5108777,23.2950439 L12.4918791,23.2987469 L12.4918791,23.2987469 L12.4767152,23.2950439 L12.4056548,23.2595131 C12.3958229,23.2563662 12.3870493,23.2590235 12.3821421,23.2649074 L12.3780323,23.275831 L12.360941,23.7031097 L12.3658947,23.7234994 L12.3769048,23.7357139 L12.4804777,23.8096931 L12.4953491,23.8136134 L12.4953491,23.8136134 L12.5071152,23.8096931 L12.6106902,23.7357139 L12.6232938,23.7196733 L12.6232938,23.7196733 L12.6266527,23.7031097 L12.609561,23.275831 C12.6075724,23.2657013 12.6010112,23.2592993 12.5934901,23.257841 L12.5934901,23.257841 Z M12.8583906,23.1452862 L12.8445485,23.1473072 L12.6598443,23.2396597 L12.6498822,23.2499052 L12.6498822,23.2499052 L12.6471943,23.2611114 L12.6650943,23.6906389 L12.6699349,23.7034178 L12.6699349,23.7034178 L12.678386,23.7104931 L12.8793402,23.8032389 C12.8914285,23.8068999 12.9022333,23.8029875 12.9078286,23.7952264 L12.9118235,23.7811639 L12.8776777,23.1665331 C12.8752882,23.1545897 12.8674102,23.1470016 12.8583906,23.1452862 L12.8583906,23.1452862 Z M12.1430473,23.1473072 C12.1332178,23.1423925 12.1221763,23.1452606 12.1156365,23.1525954 L12.1099173,23.1665331 L12.0757714,23.7811639 C12.0751323,23.7926639 12.0828099,23.8018602 12.0926481,23.8045676 L12.108256,23.8032389 L12.3092106,23.7104931 L12.3186497,23.7024347 L12.3186497,23.7024347 L12.3225043,23.6906389 L12.340401,23.2611114 L12.337245,23.2485176 L12.337245,23.2485176 L12.3277531,23.2396597 L12.1430473,23.1473072 Z" id="MingCute" fill-rule="nonzero"></path>
                <path d="M6.85728,2.44489 C7.99928,3.27790429 8.88915755,4.41552061 9.65001761,5.50316536 L10.0920364,6.14691904 L10.0920364,6.14691904 L10.509,6.76166 L10.509,6.76166 C10.9374,7.38835 10.8351,8.244 10.2531,8.74772 L8.30198,10.1967 C8.10859,10.3404 8.04429,10.6014 8.16028,10.8125 C8.60173,11.6161 9.38819,12.8119 10.2882,13.7119 C11.1891,14.6128 12.4414,15.45 13.3002,15.9412 C13.5229,16.0685 13.803,15.9948 13.9438,15.7803 L15.2131,13.8468 C15.6999,13.1991 16.6088,13.0576 17.2695,13.5149 L17.9332982,13.9735916 C19.1717645,14.8335207 20.5037538,15.8105615 21.521,17.1133 C21.8626,17.5507 21.9133,18.1227 21.7096,18.5981 C20.8728,20.5507 18.7552,22.2136 16.5524,22.1325 L16.2518759,22.1158001 L16.2518759,22.1158001 L16.0189256,22.0957065 L16.0189256,22.0957065 L15.7611336,22.0668244 L15.7611336,22.0668244 L15.4795621,22.0277651 L15.4795621,22.0277651 L15.1752731,21.97714 C15.1227241,21.9676615 15.0692729,21.9576432 15.0149414,21.9470562 L14.6785676,21.8764784 C14.6208039,21.8635009 14.5622043,21.8498968 14.5027909,21.8356372 L14.136722,21.7419821 L14.136722,21.7419821 L13.7521839,21.6312063 L13.7521839,21.6312063 L13.3502388,21.501921 C11.5039131,20.8764078 9.16110938,19.6464875 6.75735,17.2427 C4.35356813,14.8389125 3.12365344,12.4961028 2.49813876,10.6497861 L2.36885301,10.2478433 L2.36885301,10.2478433 L2.25807648,9.86330795 L2.25807648,9.86330795 L2.16442042,9.4972422 L2.16442042,9.4972422 L2.08649611,9.15070812 C2.06298899,9.03857004 2.04187237,8.92986425 2.02291481,8.82476776 L1.97228778,8.52048321 L1.97228778,8.52048321 L1.93322631,8.23891652 L1.93322631,8.23891652 L1.90434165,7.98112978 L1.90434165,7.98112978 L1.88424507,7.74818505 L1.88424507,7.74818505 L1.86754,7.44767 L1.86754,7.44767 C1.78675,5.25221 3.46855,3.11902 5.41215,2.28605 C5.86822,2.09059 6.4206,2.12636 6.85728,2.44489 Z M14.9917005,6.03952315 L15.1077,6.05315 C15.8356,6.18149 16.5042,6.53699 17.0177,7.06867 C17.5311,7.60035 17.863,8.28093 17.9659,9.01287 C18.0428,9.55978 17.6617,10.0654 17.1148,10.1423 C16.6069643,10.2137071 16.1346531,9.89022337 16.0082806,9.40576032 L15.9854,9.29121 C15.9413,8.97753 15.799,8.68585 15.579,8.45799 C15.3955833,8.26809833 15.1660556,8.13065111 14.9140856,8.05827565 L14.7604,8.02276 C14.2166,7.92686 13.8534,7.4082 13.9493,6.86431 C14.03835,6.35926 14.4919571,6.01004352 14.9917005,6.03952315 L14.9917005,6.03952315 Z M15,2.99999 C15.7879,2.99999 16.5682,3.15518 17.2961,3.45671 C18.0241,3.75824 18.6855,4.2002 19.2427,4.75735 C19.7998,5.3145 20.2418,5.97594 20.5433,6.70389 C20.8448,7.43184 21,8.21206 21,8.99999 C21,9.55227 20.5523,9.99999 20,9.99999 C19.48715,9.99999 19.0644908,9.61394571 19.0067275,9.11661025 L19,8.99999 C19,8.4747 18.8966,7.95456 18.6955,7.46926 C18.4945,6.98395 18.1999,6.543 17.8284,6.17156 C17.457,5.80013 17.0161,5.50549 16.5307,5.30447 C16.1262833,5.13695333 15.6977,5.03718667 15.2620796,5.00858435 L15,4.99999 C14.4477,4.99999 14,4.55227 14,3.99999 C14,3.44771 14.4477,2.99999 15,2.99999 Z" id="形状" fill="#09244B"></path>
            </g>
        </g>
    </g>
</svg>

<svg xmlns="http://www.w3.org/2000/svg" width="24" height="24"><g fill="none" fill-rule="nonzero"><path d="M24 0v24H0V0h24ZM12.593 23.258l-.011.002-.071.035-.02.004-.014-.004-.071-.035c-.01-.004-.019-.001-.024.005l-.004.01-.017.428.005.02.01.013.104.074.015.004.012-.004.104-.074.012-.016.004-.017-.017-.427c-.002-.01-.009-.017-.017-.018Zm.265-.113-.013.002-.185.093-.01.01-.003.011.018.43.005.012.008.007.201.093c.012.004.023 0 .029-.008l.004-.014-.034-.614c-.003-.012-.01-.02-.02-.022Zm-.715.002a.023.023 0 0 0-.027.006l-.006.014-.034.614c0 .012.007.02.017.024l.015-.002.201-.093.01-.008.004-.011.017-.43-.003-.012-.01-.01-.184-.092Z"/><path fill="#09244B" d="M6.857 2.445C8 3.278 8.89 4.415 9.65 5.503l.442.644.417.615a1.504 1.504 0 0 1-.256 1.986l-1.951 1.449a.48.48 0 0 0-.142.616c.442.803 1.228 1.999 2.128 2.899.901.9 2.153 1.738 3.012 2.23a.483.483 0 0 0 .644-.162l1.27-1.933a1.503 1.503 0 0 1 2.056-.332l.663.459c1.239.86 2.57 1.837 3.588 3.14a1.47 1.47 0 0 1 .189 1.484c-.837 1.953-2.955 3.616-5.158 3.535l-.3-.017-.233-.02-.258-.03-.281-.038-.305-.05a11.66 11.66 0 0 1-.16-.03l-.336-.072a12.399 12.399 0 0 1-.176-.04l-.366-.094-.385-.11-.402-.13c-1.846-.626-4.189-1.856-6.593-4.26-2.403-2.403-3.633-4.746-4.259-6.592l-.13-.402-.11-.385-.094-.366-.078-.346a11.79 11.79 0 0 1-.063-.326l-.05-.305-.04-.281-.029-.258-.02-.233-.016-.3c-.081-2.196 1.6-4.329 3.544-5.162a1.47 1.47 0 0 1 1.445.159Zm8.135 3.595.116.013a3.5 3.5 0 0 1 2.858 2.96 1 1 0 0 1-1.958.393l-.023-.115a1.5 1.5 0 0 0-1.07-1.233l-.155-.035a1 1 0 0 1 .232-1.983ZM15 3a6 6 0 0 1 6 6 1 1 0 0 1-1.993.117L19 9a3.998 3.998 0 0 0-3.738-3.991L15 5a1 1 0 1 1 0-2Z"/></g></svg>
